X: 13678
T: Foorglass, The
R: jig
M: 6/8
K: Edorian
edB e2f|edB d2B|AFE DAA|DEF ABd|
e2B e2f|edB d2e|faf edB|1 AFD E3:|2 AFD E2F||
G2E EBA|B2G AGF|~G3 ~E3|Bcd eBA|
~G3 ~E3|BEB AFA|EFG F2B|AFD E2F|
G2E EBA|B2G AGF|~G3 ~E3|Bcd e2f|
gfe B2f|edB AFD|EFG F2B|AFD DEE|
|:~E3 G2B|~A3 AB=c|BGB AFA|GEG FDB|
~E3 G2B|~A3 AB=c|BGB AFA|GED E3:|
|:EGB efg|f2d f2a|geg fdf|e2d =cBA|
EGB efg|f2d f2a|bee fga|fe^d e2B:|

